symbols/web/comments_disabled/materialsymbolsrounded/comments_disabled_wght700fill1_20px.svg

<svg xmlns="http://www.w3.org/2000/svg" height="20" width="20"><path d="M3.667 15.708q-1.146 0-1.927-.781Q.958 14.146.958 13V3.656q0-.073.021-.156l-.125-.125q-.292-.292-.292-.708 0-.417.292-.709.292-.291.719-.291t.739.291l15.73 15.75q.291.292.291.719t-.291.719q-.292.292-.719.292t-.719-.292l-3.458-3.438Zm15.375.125-4.188-4.187-.292-.188q.167-.083.303-.27Q15 11 15 10.771q0-.354-.26-.615-.261-.26-.615-.26h-1.021l-.708-.708h1.729q.354 0 .615-.261.26-.26.26-.615 0-.354-.26-.614-.261-.26-.615-.26h-3.479l-.688-.709h4.167q.354 0 .615-.26.26-.261.26-.615t-.26-.614q-.261-.261-.615-.261H8.208L4.188.958h12.145q1.146 0 1.927.782.782.781.782 1.927Zm-9.938-4.187-1.75-1.75H5.875q-.354 0-.615.26-.26.261-.26.615t.26.614q.261.261.615.261ZM5.875 9.188h.708L5.188 7.771q-.084.104-.136.25Q5 8.167 5 8.312q0 .355.26.615.261.261.615.261Z"/></svg>

<svg xmlns="http://www.w3.org/2000/svg" height="20" width="20"><path d="M3.667 15.708Q2.521 15.708 1.74 14.927Q0.958 14.146 0.958 13V3.812Q0.958 3.729 0.958 3.656Q0.958 3.583 0.979 3.5L0.854 3.375Q0.562 3.083 0.562 2.667Q0.562 2.25 0.854 1.958Q1.146 1.667 1.573 1.667Q2 1.667 2.312 1.958L18.042 17.708Q18.333 18 18.333 18.427Q18.333 18.854 18.042 19.146Q17.75 19.438 17.323 19.438Q16.896 19.438 16.604 19.146L13.146 15.708ZM19.042 15.833 14.854 11.646 14.562 11.458Q14.729 11.375 14.865 11.188Q15 11 15 10.771Q15 10.417 14.74 10.156Q14.479 9.896 14.125 9.896H13.104L12.396 9.188H14.125Q14.479 9.188 14.74 8.927Q15 8.667 15 8.312Q15 7.958 14.74 7.698Q14.479 7.438 14.125 7.438H10.646L9.958 6.729H14.125Q14.479 6.729 14.74 6.469Q15 6.208 15 5.854Q15 5.5 14.74 5.24Q14.479 4.979 14.125 4.979H8.208L4.188 0.958H16.333Q17.479 0.958 18.26 1.74Q19.042 2.521 19.042 3.667ZM9.104 11.646 7.354 9.896H5.875Q5.521 9.896 5.26 10.156Q5 10.417 5 10.771Q5 11.125 5.26 11.385Q5.521 11.646 5.875 11.646ZM5.875 9.188H6.583L5.188 7.771Q5.104 7.875 5.052 8.021Q5 8.167 5 8.312Q5 8.667 5.26 8.927Q5.521 9.188 5.875 9.188Z"/></svg>
